icons/measure-building-height-top-base-16.svg

<svg xmlns="http://www.w3.org/2000/svg" viewBox="0 0 16 16"><path d="M3 3h1v1H3zm0 4h1V6H3zm0 3h1V9H3zm0 3h1v-1H3zm2-9h1V3H5zm0 3h1V6H5zm0 3h1V9H5zm0 3h1v-1H5zm11 2v1H0v-1h1V0h7v15zm-9 0V1H2v14zm2-3l1.5 2 1.5-2h-1V2h1l-1.5-2L9 2h1v10z"/></svg>

<svg id="icons" xmlns="http://www.w3.org/2000/svg" viewBox="0 0 16 16"><title>measure-building-height-top-base-16</title><path d="M3,3H4V4H3ZM3,7H4V6H3Zm0,3H4V9H3Zm0,3H4V12H3ZM5,4H6V3H5ZM5,7H6V6H5Zm0,3H6V9H5Zm0,3H6V12H5Zm11,2v1H0V15H1V0H8V15ZM7,15V1H2V15Zm2-3,1.5,2L12,12H11V2h1L10.5,0,9,2h1V12Z"/></svg>
